X:1
T:The Snowdrift
M:2/4
L:1/8
N:Polka
Z:Harry Ferguson 2/20/2003
K:D
|: D>FAF | G>FED | C>DED | CEA,C |
D>FAF | G>FED | CEA,C |[1 E2FE :|[2 D2FE ||
|: D2FA | d3 c/2d/2 | edcB | AG FF/2G/2 |
AD F/G/A | GFED | C/D/E A,C |[1 E2FE :|[2 D4 ||
